!!!COM: Haydn, Franz Joseph
!!!OTL: String Quartet in D Major
!!!OPS: Opus 64
!!!ONM: No. 5
!!!OMD: Adagio
!!!OMV: 2
!!!SCT: H III:63
!!!SCA: Thematisch-bibliographisches Werkevererzeichnis (A. van Hoboken)
!!!YOR: Dover Edition; reprint of Eulenburg Edition
!!!ENC: Frances Bennion
!!!CDT: 1732/3/31/-1809/5/31/
!!!CNT: Oesterreich
!!!YEC: Copyright (c) 1994, 2000 Center for Computer Assisted Research in the Humanities
!!!YEM: Rights to all derivative editions reserved.
!!!YEM: Refer to licensing agreement for further details.
!!!YEN: United States of America
**kern	**kern	**kern	**kern
*k[f#c#g#]	*k[f#c#g#]	*k[f#c#g#]	*k[f#c#g#]
*A:	*A:	*A:	*A:
*clefF4	*clefC3	*clefF	*clefF
*M3/4	*M3/4	*M3/4	*M3/4
2.AA	4E	4e	8.cc#
.	.	.	32dd
.	.	.	32cc#
.	4G#	4d	4b
.	4A	4c#	4a
=2	=2	=2	=2
2.E	4.d	4.B	4a
.	.	.	8g#
.	8A	8c#	8a
.	8G#	8B	8b
.	8G	8A	8cc#
=3	=3	=3	=3
2.D	4F#	4A	8.dd
.	.	.	32ee
.	.	.	32dd
.	2B	2G#	4cc#
.	.	.	4b
=4	=4	=4	=4
4C#	4E	4A	4ee
2r	2r	2r	4r
.	.	.	32a
.	.	.	32b
.	.	.	32cc#
.	.	.	32dd
.	.	.	32ee
.	.	.	32ff#
.	.	.	32gg#
.	.	.	32aa
=5	=5	=5	=5
8r	8r	8r	8.aa
8d	8f#	8a	.
.	.	.	16ff#
8d	8f#	8a	4..ff#
8d	8f#	8a	.
8d	8f#	8a	.
8d	8f#	8a	.
.	.	.	16ff#
=6	=6	=6	=6
8r	8r	8r	8.ff#
8d	8e	8g#	.
.	.	.	16b
8d	8e	8g#	[6..b
8d	8e	8g#	.
8d	8e	8g#	.
.	.	.	48b]
.	.	.	16cc#
8d	8e	8g#	16dd
.	.	.	16dd#
=7	=7	=7	=7
8r	8r	8r	4.ee
8c#	8a	8e	.
8B	8e	8g#	.
8G#	4e	4b	4dd
8A	.	.	.
8D#	8f#	[8a	[8cc#
=8	=8	=8	=8
4E	2e	8a]	8cc#]
.	.	8f##	8a#
4EE	.	4g#	4.b
4r	4r	4r	.
.	.	.	8b#
=9	=9	=9	=9
2.AA	4E	8.e	8.cc#
.	.	32f#	32dd
.	.	32e	32cc#
.	4G#	4d	4b
.	4A	4c#	4a
=10	=10	=10	=10
2.E	4.d	4.B	4a
.	.	.	8g#
.	8A	8c#	8a
.	8G#	8B	8b
.	8G	8A	8cc#
=11	=11	=11	=11
2.D	4F#	4A	8.dd
.	.	.	32ee
.	.	.	32dd
.	2B	2G#	4cc#
.	.	.	4b
=12	=12	=12	=12
4C#	4E	4A	4ee
2r	2r	2r	4r
.	.	.	32a
.	.	.	32b
.	.	.	32cc#
.	.	.	32dd
.	.	.	48ee
.	.	.	48ff#
.	.	.	48gg#
.	.	.	48aa
.	.	.	48bb
.	.	.	48ccc#
=13	=13	=13	=13
8r	8r	8r	8.ccc#
8A	8B	8d#	.
.	.	.	16ff#
8A	8B	8d#	[6..ff#
8A	8B	8d#	.
8A	8B	8d#	.
.	.	.	48ff#]
.	.	.	16gg#
8A	8B	8d#	16aa
.	.	.	16aa#
=14	=14	=14	=14
8r	8r	8r	8.bb
8G#	8e	8B	.
.	.	.	16gg#
8G#	8B	8e	4.ee
8G#	8B	8e	.
8G#	8B	8e	.
8G#	8B	8e	[8gg#
=15	=15	=15	=15
4A	8.c#	4f#	8gg#]
.	.	.	4ff#
.	16d#	.	.
4B	4e	4g#	.
.	.	.	4ee
4BB	4f#	4a	.
.	.	.	8dd#
=16	=16	=16	=16
4E	4f#	4a	4dd#
4EE	8e	8g#	8ee
.	4.r	4.r	4.r
4r	.	.	.
=17	=17	=17	=17
8r	8r	8r	8.ee
8C	8A	8e	.
.	.	.	16a
8C	8A	8e	4.a
8C	8A	8e	.
8C	8A	8e	.
8C	8A	8e	8ee
=18	=18	=18	=18
8r	8r	8r	8.ee
8BB	8G#	8e	.
.	.	.	16g#
8BB	8G#	8e	4.g#
8BB	8G#	8e	.
8BB	8G#	8e	.
8BB	8G#	8e	8ee
=19	=19	=19	=19
8r	8r	8r	4.ee
8BB-	8G	8e	.
8BB-	8G	8e	.
8BB-	8F	8d	8ff
8BB-	8E	8c	8gg
8BB-	8G	8c	8ee
=20	=20	=20	=20
2AA	4G	2c	4ee
.	4F	.	4.ff
4r	4r	4r	.
.	.	.	8ee
=21	=21	=21	=21
8r	8r	8r	4ee
8F	8c	8a	.
8F	8B	8b	4.dd#
8F	8A	8cc	.
8F	8B	8b	.
8F	8c	8a	8dd#
=22	=22	=22	=22
2E	4c	4a	4dd#
.	4B	4g#	4.ee
4r	4r	4r	.
.	.	.	8dd
=23	=23	=23	=23
2.AA	4E	8.e	8.cc#
.	.	32f#	32dd
.	.	32e	32cc#
.	4G#	4d	4b
.	4A	4c#	4a
=24	=24	=24	=24
2.E	4.d	4.B	4a
.	.	.	8g#
.	8A	8c#	8a
.	8G#	8B	8b
.	8G	8A	8cc#
=25	=25	=25	=25
2.D	4F#	4A	8.dd
.	.	.	32ee
.	.	.	32dd
.	2B	2G#	4cc#
.	.	.	4b
=26	=26	=26	=26
4C#	4E	4A	4ee
2r	2r	2r	4r
.	.	.	32a
.	.	.	32b
.	.	.	32cc#
.	.	.	32dd
.	.	.	32ee
.	.	.	32ff#
.	.	.	32gg#
.	.	.	32aa
=27	=27	=27	=27
8r	8r	8r	8.aa
8d	8f#	8a	.
.	.	.	16ff#
8d	8f#	8a	4.ff#
8d	8f#	8a	.
8d	8f#	8a	.
8d	8f#	8a	8ddd
=28	=28	=28	=28
8r	8r	8r	4ddd
8B	8d	8e	.
4B	4d	4e	4G#
4r	4r	4r	4r
=29	=29	=29	=29
4r	4r	4r	4bb
4g	4b	4dd	4ee#
4f#	4b	4dd	4ff#
=30	=30	=30	=30
4e#	4b	4dd	4gg#
4f#	4a	4cc#	4aa
4r	4r	4r	4r
=31	=31	=31	=31
8D	4d	2.a	4ff#
8D	.	.	.
8E	4c#	.	4ee
8E	.	.	.
8F	4c	.	4dd#
8F	.	.	.
=32	=32	=32	=32
2.E	2.c#	2.A	4.ee
.	.	.	16ff#
.	.	.	16ee
.	.	.	16dd
.	.	.	16cc#
.	.	.	16b
.	.	.	16a
=33	=33	=33	=33
2.EE	2.B	[2.d	4a
.	.	.	8g#
.	.	.	8b
.	.	.	8dd
.	.	.	8g#
=34	=34	=34	=34
2AA	4G#	4d]	4b
.	8A	8c#	8a
.	4.r	4.r	4.r
4r	.	.	.
=35	=35	=35	=35
2.r	8.cc	8.ee	2r
.	32dd	32ff	.
.	32cc	32ee	.
.	4b	4dd	.
.	4a	4cc	4r
=36	=36	=36	=36
2.r	2.g#	2.b	8.ff
.	.	.	32gg
.	.	.	32ff
.	.	.	4ee
.	.	.	4dd
=37	=37	=37	=37
8.f	4a	2a	2cc
32g	.	.	.
32f	.	.	.
4e	4r	.	.
4d#	4d#	4cc	4aa
=38	=38	=38	=38
2e	4e	4a	4cc
.	2r	4g#	4b
4r	.	4r	4r
=39	=39	=39	=39
4CC	4G	4G	8.e
.	.	.	32f
.	.	.	32e
4DD	4F	4B	4d
4EE	8E	4c	4c
.	8G	.	.
=40	=40	=40	=40
[2FF	8A	2.c	8c
.	8f	.	8a
.	4.f	.	4.a
8FF]	.	.	.
8GG	8e	.	8g
=41	=41	=41	=41
4.AA	4A	4.c	8g
.	.	.	8f#
.	8r	.	4.f
8BB	8G	8d	.
8C	8d	8G	.
8FF#	8c	8c	8e
=42	=42	=42	=42
2GG	4G	4c	4e
.	2r	4B	8d
.	.	.	8G
4r	.	4r	8B
.	.	.	8d
=43	=43	=43	=43
8r	8r	8r	8.f
8D	8F	8G	.
.	.	.	48e
.	.	.	48d
.	.	.	48c
8D	8F	8G	8.B
8D	8F	8G	.
.	.	.	16c
8D	8F	8G	16d
.	.	.	16e
8D	8F	8G	16f
.	.	.	16f#
=44	=44	=44	=44
8r	8r	8r	8.g
8E	8G	8B-	.
.	.	.	48f
.	.	.	48e
.	.	.	48d
8E	8G	8B-	2c#
8E	8G	8B-	.
8E	8G	8B-	.
8E	8G	8B-	.
=45	=45	=45	=45
8F	8A	8A	24d
.	.	.	24a
.	.	.	24g#
8FF	8F	8d	24a
.	.	.	24f
.	.	.	24d
2GG	4E	4c	4c
.	4F	4B	8.d
.	.	.	16c
=46	=46	=46	=46
4C	4E	4.c	4.c
4CC	2r	.	.
.	.	8c	8e
4r	.	8c	8e
.	.	8c	8e
=47	=47	=47	=47
2GG#	2.E	8.c	8.e
.	.	32d	32f
.	.	32c	32e
.	.	8B	8d
.	.	8B	8d
4AA	.	8A	8c
.	.	8A	8c
=48	=48	=48	=48
4EE	4E	4A	4c
4E	8r	4G#	8B
.	8G#	.	8e
4r	8G#	4e	8e
.	8G#	.	8e
=49	=49	=49	=49
2.FF	4A	8.e	4.a
.	.	32f	.
.	.	32e	.
.	4r	4d	.
.	.	.	8b
.	4A	4d#	8cc
.	.	.	8d#
=50	=50	=50	=50
4EE	4A	4d#	4d#
4E	4G#	4e	8e
.	.	.	16f#
.	.	.	16g#
4r	4r	4r	16a
.	.	.	16a#
.	.	.	16b
.	.	.	16b#
=51	=51	=51	=51
2.AA	4E	4e	8.cc#
.	.	.	32dd
.	.	.	32cc#
.	4G#	4d	4b
.	4A	4c#	4a
=52	=52	=52	=52
2.E	4.d	4.B	4a
.	.	.	16g#
.	.	.	16ee
.	8A	8c#	16a
.	.	.	16ee
.	8G#	8B	16b
.	.	.	16ee
.	8G	8A	16cc#
.	.	.	16ee
=53	=53	=53	=53
2.D	4F#	4A	8dd
.	.	.	32dd
.	.	.	32cc#
.	.	.	32dd
.	.	.	32ee
.	2B	2G#	4ff#
.	.	.	16ee
.	.	.	16dd
.	.	.	16cc#
.	.	.	16b
=54	=54	=54	=54
4C#	4E	4A	4ee
2r	2r	2r	4r
.	.	.	32a
.	.	.	32b
.	.	.	32cc#
.	.	.	32dd
.	.	.	32ee
.	.	.	32ff#
.	.	.	32gg#
.	.	.	32aa
=55	=55	=55	=55
8r	8r	8r	8.aa
8d	8f#	8a	.
.	.	.	16ff#
8d	8f#	8a	8.ff#
8d	8f#	8a	.
.	.	.	32ee#
.	.	.	32ff#
8d	8f#	8a	32ee#
.	.	.	32ff#
.	.	.	32ee#
.	.	.	32ff#
8d	8f#	8a	32ee#
.	.	.	32ff#
.	.	.	32gg#
.	.	.	32ff#
=56	=56	=56	=56
8r	8r	8r	8.ff#
8d	8e	8g#	.
.	.	.	48ee
.	.	.	48dd
.	.	.	48cc#
8d	8e	8g#	8.b
8d	8e	8g#	.
.	.	.	16b
8d	8e	8g#	24a#
.	.	.	24b
.	.	.	24b#
8d	8e	8g#	24cc#
.	.	.	24dd
.	.	.	24dd#
=57	=57	=57	=57
8r	8r	8r	8ee
8c#	8a	8e	8.ee
8B	8e	8g#	.
.	.	.	16dd#
8G#	4e	4b	16r
.	.	.	16dd
8A	.	.	16r
.	.	.	16cc#
8D#	8f#	8a	16r
.	.	.	32cc#
.	.	.	32aa
=58	=58	=58	=58
4E	2e	4a	16cc#
.	.	.	16dd
.	.	.	16dd#
.	.	.	16ee
4EE	.	4g#	4.b
4r	4r	4r	.
.	.	.	8b#
=59	=59	=59	=59
2.AA	4E	4e	16.cc#
.	.	.	32dd
.	.	.	16.ee
.	.	.	64dd
.	.	.	64cc#
.	4G#	4d	16.b
.	.	.	32cc#
.	.	.	16.dd
.	.	.	64cc#
.	.	.	64b
.	4A	4c#	8a
.	.	.	8a
=60	=60	=60	=60
2.E	4.d	4.B	4a
.	.	.	16g#
.	.	.	16g#
.	8A	8c#	16b
.	.	.	16a
.	8G#	8B	16cc#
.	.	.	16b
.	8G	8A	16dd
.	.	.	16cc#
=61	=61	=61	=61
2.D	4F#	4A	8ee
.	.	.	8dd
.	2B	2G#	4ff#
.	.	.	16ee
.	.	.	16dd
.	.	.	16cc#
.	.	.	16b
=62	=62	=62	=62
4C#	4E	4A	4ee
2r	2r	2r	4r
.	.	.	24A
.	.	.	24c#
.	.	.	24e
.	.	.	24a
.	.	.	24cc#
.	.	.	24ee
=63	=63	=63	=63
8r	8r	8r	24aa
.	.	.	24ccc#
.	.	.	24bb
8A	8B	8d#	24aa
.	.	.	24gg#
.	.	.	24ff#
8A	8B	8d#	24ee
.	.	.	24dd#
.	.	.	24cc#
8A	8B	8d#	24b
.	.	.	24a#
.	.	.	24b
8A	8B	8d#	24cc#
.	.	.	24dd#
.	.	.	24ee
8A	8B	8d#	24ff#
.	.	.	24gg#
.	.	.	24aa
=64	=64	=64	=64
8r	8r	8r	8aa#
8G#	8e	8B	6bb
8G#	8B	8e	.
.	.	.	24bb
.	.	.	24gg#
8G#	8B	8e	24ee
.	.	.	24bb
.	.	.	24gg#
8G#	8B	8e	24ee
.	.	.	24eee
.	.	.	24ddd#
8G#	8B	8e	24ccc#
.	.	.	24bb
.	.	.	24aa
=65	=65	=65	=65
4A	8c#	4f#	24gg#
.	.	.	24ff#
.	.	.	24gg#
.	8d#	.	24aa
.	.	.	24gg#
.	.	.	24ff#
4B	4e	4g#	24r
.	.	.	24ee
.	.	.	24ff#
.	.	.	24gg#
.	.	.	24ff#
.	.	.	24ee
4BB	4f#	4a	24r
.	.	.	24dd#
.	.	.	24ff#
.	.	.	24aa
.	.	.	24bb
.	.	.	24dd#
=66	=66	=66	=66
4E	4d#	4a	4ff#
8EE	8e	8g#	8ee
8E	4.r	4.r	4.r
8E	.	.	.
8D	.	.	.
=67	=67	=67	=67
8r	8r	8r	8.ee
8C	8A	8e	.
.	.	.	16a
8C	8A	8e	6..a
8C	8A	8e	.
8C	8A	8e	.
.	.	.	24b
.	.	.	24cc
8C	8A	8e	24cc#
.	.	.	24dd
.	.	.	24dd#
=68	=68	=68	=68
8r	8r	8r	8.ee
8BB	8G#	8e	.
.	.	.	16g#
8BB	8G#	8e	6..g#
8BB	8G#	8e	.
8BB	8G#	8e	.
.	.	.	24e
.	.	.	24ee
8BB	8G#	8e	24e
.	.	.	24ee
.	.	.	24e
=69	=69	=69	=69
8r	8r	8r	6..ee
8BB-	8G	8e	.
8BB-	8G	8e	.
.	.	.	24e
.	.	.	24ee
8BB-	8F	8d	24ff
.	.	.	24f
.	.	.	24ff
8BB-	8E	8c	24gg
.	.	.	24g
.	.	.	24gg
8BB-	8G	8c	24ee
.	.	.	24e
.	.	.	24ee
=70	=70	=70	=70
8r	8r	8r	16ee
.	.	.	16ee
8AA	8F	8c	16gg
.	.	.	16ff
8AA	8F	8c	4ff
8AA	8F	8c	.
8AA	8F	8c	24f
.	.	.	24a
.	.	.	24cc
8AA	8F	8c	24ff
.	.	.	24aa
.	.	.	24ff
=71	=71	=71	=71
8r	8r	8r	4ee
8FF	8c	8a	.
8FF	8B	8b	8dd#
8FF	8A	8cc	8dd#
8FF	8B	8b	8dd#
8FF	8c	8a	8dd#
=72	=72	=72	=72
2EE	4c	4a	16dd#
.	.	.	16dd#
.	.	.	16ff#
.	.	.	16ee
.	4B	4g#	4ee
8FF#	8A	8a	8dd#
8GG#	8E	8b	8dd
=73	=73	=73	=73
2.AA	4E	8.e	8.cc#
.	.	32f#	32dd
.	.	32e	32cc#
.	4G#	4d	4b
.	4A	4c#	4a
=74	=74	=74	=74
2.E	4.d	4.B	4a
.	.	.	24g#
.	.	.	24ee
.	.	.	24ee
.	8A	8c#	24a
.	.	.	24ff#
.	.	.	24ee
.	8G#	8B	24b
.	.	.	24ff#
.	.	.	24ee
.	8G	8A	24dd
.	.	.	24cc#
.	.	.	24aa
=75	=75	=75	=75
2.D	4F#	4A	24aa
.	.	.	24cc#
.	.	.	24dd
.	.	.	24ee
.	.	.	24cc#
.	.	.	24dd
.	2B	2G#	4ff#
.	.	.	16ee
.	.	.	16dd
.	.	.	16cc#
.	.	.	16b
=76	=76	=76	=76
4C#	4E	4A	4ee
2r	2r	2r	4r
.	.	.	24c#
.	.	.	24e
.	.	.	24a
.	.	.	24cc#
.	.	.	24ee
.	.	.	24aa
=77	=77	=77	=77
8r	8r	8r	4aa
8d	8f#	8a	.
8d	8f#	8a	8ff#
8d	8f#	8a	8r
8d	8f#	8a	24d
.	.	.	24f#
.	.	.	24a
8d	8f#	8a	32dd
.	.	.	32ff#
.	.	.	32aa
.	.	.	32ddd
=78	=78	=78	=78
8r	8r	8r	4fff#
8B	8d	8e	.
4B	4d	4e	4G#
4r	4r	4r	4r
=79	=79	=79	=79
4r	4r	4r	4bb
4g	4b	4dd	4ee#
4f#	4b	4dd	4ff#
=80	=80	=80	=80
4e#	4b	4dd	8.gg#
.	.	.	16gg#
4f#	4a	4cc#	4aa
4r	4r	4r	4r
=81	=81	=81	=81
8D	4d	2.a	8.ff#
8D	.	.	.
.	.	.	48aa
.	.	.	48gg#
.	.	.	48ff#
8E	4c#	.	8.ee
8E	.	.	.
.	.	.	64aa
.	.	.	64gg#
.	.	.	64ff#
.	.	.	64ee
8F#	4c	.	24dd#
.	.	.	24ff#
.	.	.	24gg#
8F#	.	.	24aa
.	.	.	24ff#
.	.	.	24dd#
=82	=82	=82	=82
2.E	2.c#	2.A	24ee
.	.	.	24ccc#
.	.	.	24aa
.	.	.	24ee
.	.	.	24eee
.	.	.	24ccc#
.	.	.	24aa
.	.	.	24eee
.	.	.	24ddd
.	.	.	24ccc#
.	.	.	24bb
.	.	.	24aa
.	.	.	24gg#
.	.	.	24ff#
.	.	.	24ee
.	.	.	24dd
.	.	.	24cc#
.	.	.	24b
=83	=83	=83	=83
2.EE	2.B	2.d	4a
.	.	.	24g#
.	.	.	24b
.	.	.	24a
.	.	.	24cc#
.	.	.	24b
.	.	.	24dd
.	.	.	24cc#
.	.	.	24ee
.	.	.	24cc#
.	.	.	24dd
.	.	.	24b
.	.	.	24g#
=84	=84	=84	=84
2AA	2G#	2d	2b
4r	8A	8c#	8a
.	8r	8r	8r
==	==	==	==
*-	*-	*-	*-
!!!RWG1: This file contains only pitch and duration data.
!!!RWG2: Transposing instruments are not transposed.
!!!RWG3: Spines may have incompatible meters.
!!!RWG4: Durations of rests and tied notes may be interpreted.
!!!RWG: Key is interpreted using the Humdrum key tool.
!!!GTL: 6 Quartetti ("Tost III")
!!!OPT: The Lark
!!!AFT: stage1
!!!END: 1997/04/15
!!!KEY: 2185438214
!!!EMD: Converted from MuseData to Humdrum Dec 16, 2000, by Andreas Kornstaedt using muse2kern.
!!!EMD: Manual editing by Craig Sapp, Nov 2001
